X: 0
T: The Scotsman Over The Border
C: Trad.
R: jig
M: 6/8
L: 1/8
K: Dmix
"D"DED FDF|AFA d2c|"G"~B3 BAB|def "A"edB|
"D"DED FDF|AFA d2c|"G"~B3 AFA|dAF "A"EFE:|
|:"D"dfa afa|bag ~e2e|dfa afe|def "A"edB|
"D"dfa afa|bag ~e2e|"G"d2B AFA|dAF "A"~E3:| 